images/plus-focus.svg

<svg xmlns="http://www.w3.org/2000/svg" width="26" height="26" fill="none"><path fill="#000" d="M20 12h-6V6h-2v6H6v2h6v6h2v-6h6v-2Z"/><rect width="23" height="23" x="1.5" y="1.5" stroke="#82B3D3" stroke-width="3" rx="5.5"/></svg>

<svg width="26" height="26" viewBox="0 0 26 26" fill="none" xmlns="http://www.w3.org/2000/svg">
<path d="M20 12H14V6H12V12H6V14H12V20H14V14H20V12Z" fill="black"/>
<rect x="1.5" y="1.5" width="23" height="23" rx="5.5" stroke="#82B3D3" stroke-width="3"/>
</svg>
